modules/coreui-icons-brand/icons/adobe-indesign.svg

<svg version="1.1" xmlns="http://www.w3.org/2000/svg" width="32" height="32" viewBox="0 0 32 32">
<title>adobe-indesign</title>
<path d="M0 0.401v31.197h32v-31.197zM1.333 1.735h29.333v28.531h-29.333zM11.697 22.027c0 0.129-0.020 0.171-0.171 0.171h-2.053c-0.129 0-0.171-0.061-0.171-0.171v-14.319c0-0.129 0.061-0.177 0.171-0.177h2.073c0.109 0 0.151 0.048 0.151 0.157zM14.063 16.86c0-3.188 2.099-5.672 5.468-5.672 0.281 0 0.439 0 0.704 0.015v-3.536c0-0.088 0.068-0.136 0.129-0.136h2.167c0.115 0 0.136 0.048 0.136 0.115v12.475c0 0.369 0 0.833 0.068 1.339 0 0.088-0.027 0.109-0.115 0.156-1.147 0.547-2.36 0.792-3.5 0.792-2.953 0-5.063-1.828-5.063-5.547zM20.235 13.364c-0.199-0.088-0.464-0.135-0.792-0.135-1.713 0-2.916 1.317-2.916 3.52 0 2.511 1.223 3.521 2.765 3.521 0.328 0 0.681-0.041 0.943-0.156z"></path>
</svg>

<svg xmlns="http://www.w3.org/2000/svg" width="32" height="32" viewBox="0 0 32 32"><path d="M0 .401v31.197h32V.401zm1.333 1.334h29.333v28.531H1.333zm10.364 20.292c0 .129-.02.171-.171.171H9.473c-.129 0-.171-.061-.171-.171V7.708c0-.129.061-.177.171-.177h2.073c.109 0 .151.048.151.157zm2.366-5.167c0-3.188 2.099-5.672 5.468-5.672.281 0 .439 0 .704.015V7.667a.13.13 0 01.129-.136h2.167c.115 0 .136.048.136.115v12.475c0 .369 0 .833.068 1.339 0 .088-.027.109-.115.156a8.163 8.163 0 01-3.5.792c-2.953 0-5.063-1.828-5.063-5.547zm6.172-3.496c-.199-.088-.464-.135-.792-.135-1.713 0-2.916 1.317-2.916 3.52 0 2.511 1.223 3.521 2.765 3.521.328 0 .681-.041.943-.156z"/></svg>
